X: 59
T: Kick the Rogue's out
N: The title does contain that apostrophe.
%R: slip-jig
B: Stewart "A Select Collection of Airs, Jigs, Marches and Reels", ca.1784, p.27 #59
F: http://imslp.org/wiki/A_Select_Collection_of_Airs,_Jigs,_Marches_and_Reels_%28Various%29
Z: 2017 John Chambers <jc:trillian.mit.edu>
M: 9/8
L: 1/8
K: D
|:\
F>GA D2B AFD | F>GA D2A TB2A |\
F>GA D2B AFD | GFE EFA TB2A :|
|:\
d3 D2B AFD | (d/c/B/c/)d D2g Tf2e |\
def efd cBA | dcB AFA TB2A :|
